X: 110119
T: Killasser 
C: J.O'Sullivan
Z: B.Black
R: reel
M: 4/4
L: 1/8
K: Edor
A | BGEG Bdgd | AF F2 DF F2 | BGEG Bdgd |\
BAGF E3 A |
BGEG Bdgd | AF F2 DF F2 | BAGB d3 B |\
AGFG E3 :|
A | eBgB aBgB | fd d2 ad d2 | eBgB a2 gb |\
gfef e3 f |
eBgB aBgB | fd d2 ad d2 | b3 a gabg |\
agfg e3 :|
